X:1
T:Title
%%score ( 1 2 ) ( 3 4 ) 5
L:1/8
M:4/4
K:Bb
V:1 treble nm="Viola, Staff"
V:2 treble 
V:3 bass nm="Choir Aahs, Staff-1"
V:4 bass 
V:5 treble nm="Bright Piano, Staff-2"
V:1
 z D [DF]2 [CF]2 [DF]2 | FG _A2 A2 G2- | GF [EG]2 [FB]2 BG | FG B2- [EB-]2 [DB]2 | %4
 D-[Dc] d2 B2 B2 | G2 C2- [CE]2 [B,D]2 | z CDF- F/ z/ G FD | [A,C]2 B,6 |] %8
V:2
 B,2 z2 z4 | B,2 C4 B,2- | B,2 z2 z2 E2- | E2 F2 z4 | .B2 D4 E2- | E2 F2 z4 | B,2 A,4 B,2 | x8 |] %8
V:3
 D,E, F,2 E,2 F,2 | D,2 E,2- [C,E,]2 E,2- | E,F, B,2- [D,B,-]2 [C,B,]2 | %3
w: By~Usona~Spiritkanta~Melodio * * * *|||
 [F,A,][E,G,] F,2- [C,F,-]2 [B,,F,]2 | z4 z2 C,2 | z2 F,6 | [E,G,]2 [D,F,]4 [C,G,]2 | %7
w: ||||
 [F,,E,]2 [B,,D,]6 |] %8
w: |
V:4
 B,,2 B,,6- | B,,2 _A,,2 z4 | z2 E,2 z4 | z2 D,2 z4 | [A,,F,]2 [G,,B,]4 G,2- | %5
 [B,,G,]2 A,,2 G,,A,, B,,2 | x8 | x8 |] %8
V:5
 B,D F2 F2 F2 | FG _A2 A2 G2- | GF G2 B2 BG | FG B6 | Bc d2 B2 B2 | G2 F2 E2 D2 | %6
 B,CDF- F/ z/ G FD | C2 B,6 |] %8

